X: 1154
T: An Buinnean Bui
R: barndance
M: 4/4
K: Cmajor
ed||c4 G2 E2|F4 E3F|G6 AB|c6 E2|G4 E2 D2|C4-CDED|C2 C6|C4 e3d|
c4 G3E|F4 E3F|G4-GABG|c6 E2|G6 E2|C4-CDED|C6 C2|C6 G2||
G6 AB|c6 d2|e6-ef|e6- ed|c6-cB|G6-GA|G6 G2|G6 ed|
c4 G2 E2|F4 E2 F2|G6 AB|c4 E3F|G6 E2|C4-CDED|C2 C6|C4 e3d||
c4 G2 E2|F4 E2 F2|G4 A2 B2|c6 E2|G4 E2 D2|C2-CD E2-ED|C4 C3B,|C4 e3d|
c4 G2 E2|F4 E2 F2|G4 A2 B2|c6 E2|G4 E2 D2|C2-CD E2-ED|C6-CB,|C6 E2|
G6 AB|c6 d2|e6 f2|e6 d2|c6 B2|G6-GF|G8-|G6 ed|
c4 G2 E2|F4 E2 F2|G4 A2 B2|c6 EF|G4 E2 D2|C2-CD E2-ED|C4 C2B,2|C6||

